flaticon/dialogue/chat-4.svg

<svg xmlns="http://www.w3.org/2000/svg" width="32" height="32" viewBox="0 0 24 24">
    <path d="M 22.09375 17.242188 C 23.339844 15.496094 24 13.480469 24 11.398438 C 24 5.445312 18.617188 0.601562 12 0.601562 C 5.382812 0.601562 0 5.445312 0 11.398438 C 0 17.355469 5.382812 22.199219 12 22.199219 C 13.703125 22.199219 15.351562 21.882812 16.898438 21.261719 C 19.621094 22.832031 23.382812 23.375 23.542969 23.394531 C 23.5625 23.398438 23.582031 23.398438 23.601562 23.398438 C 23.75 23.398438 23.890625 23.316406 23.957031 23.179688 C 24.035156 23.023438 24.003906 22.839844 23.882812 22.71875 C 22.960938 21.796875 22.328125 19.855469 22.09375 17.242188 Z M 17.136719 20.472656 C 16.292969 19.953125 15.347656 19.347656 15.128906 19.171875 C 15.011719 19 14.777344 18.949219 14.59375 19.058594 C 14.476562 19.128906 14.398438 19.261719 14.398438 19.402344 C 14.394531 19.636719 14.398438 19.710938 16.03125 20.726562 C 14.746094 21.171875 13.394531 21.398438 12 21.398438 C 5.824219 21.398438 0.800781 16.914062 0.800781 11.398438 C 0.800781 5.886719 5.824219 1.398438 12 1.398438 C 18.175781 1.398438 23.199219 5.886719 23.199219 11.398438 C 23.199219 13.359375 22.5625 15.257812 21.359375 16.890625 C 21.300781 16.96875 21.273438 17.0625 21.28125 17.160156 C 21.421875 18.828125 21.777344 20.957031 22.660156 22.425781 C 21.324219 22.152344 18.921875 21.550781 17.136719 20.472656 Z M 17.136719 20.472656"/>
</svg>

<svg xmlns="http://www.w3.org/2000/svg" width="32" height="32" viewBox="0 0 24 24">
    <path d="M22.094 17.242C23.34 15.496 24 13.48 24 11.398 24 5.445 18.617.602 12 .602S0 5.445 0 11.398C0 17.355 5.383 22.2 12 22.2c1.703 0 3.352-.316 4.898-.937 2.723 1.57 6.485 2.113 6.645 2.133.02.003.039.003.059.003a.397.397 0 0 0 .281-.68c-.922-.921-1.555-2.863-1.79-5.476zm-4.957 3.23c-.844-.519-1.79-1.124-2.008-1.3a.4.4 0 0 0-.535-.113.407.407 0 0 0-.196.343c-.003.235 0 .309 1.633 1.325a12.262 12.262 0 0 1-4.031.671c-6.176 0-11.2-4.484-11.2-10 0-5.511 5.024-10 11.2-10 6.176 0 11.2 4.489 11.2 10 0 1.961-.637 3.86-1.84 5.493a.392.392 0 0 0-.079.27c.14 1.667.496 3.796 1.38 5.265-1.337-.274-3.74-.875-5.524-1.953zm0 0"/>
</svg>
